images/icon-circle-check.svg

<svg class="w-6 h-6" width="24" height="24" viewBox="0 0 24 24" fill="none" xmlns="http://www.w3.org/2000/svg"><path d="M10.2904 1.13038C12.6207 0.763266 15.0028 1.15596 17.0873 2.24269L17.4994 2.46925L17.5854 2.52394C17.9968 2.82012 18.1252 3.38591 17.8666 3.83449C17.6078 4.28303 17.0536 4.45538 16.5912 4.24757L16.5004 4.2007L16.1625 4.01613C14.4572 3.12711 12.5084 2.80569 10.602 3.10597C8.56851 3.42634 6.70597 4.43432 5.32559 5.96144C3.94523 7.48863 3.12994 9.44314 3.01602 11.4985C2.90214 13.554 3.49639 15.587 4.69962 17.2573C5.90283 18.9276 7.64272 20.1352 9.62833 20.6782C11.6139 21.2212 13.726 21.0672 15.6117 20.2417C17.4976 19.4162 19.0436 17.9685 19.9916 16.1411C20.8803 14.428 21.1931 12.4777 20.89 10.5786L20.8207 10.1997L20.8061 10.0982C20.7557 9.59404 21.0939 9.12353 21.601 9.02003C22.1085 8.91663 22.6046 9.21756 22.7553 9.70167L22.7807 9.80031L22.8647 10.2632C23.2351 12.5846 22.8524 14.9681 21.766 17.062C20.6073 19.2954 18.7184 21.0648 16.4135 22.0737C14.1088 23.0826 11.5278 23.2705 9.10098 22.6069C6.67407 21.9432 4.54717 20.4678 3.07657 18.4263C1.60599 16.3847 0.879793 13.9004 1.01895 11.3882C1.15815 8.87596 2.15505 6.48723 3.8422 4.62062C5.52933 2.75412 7.8051 1.52195 10.2904 1.13038Z" fill="#22C55EFF" style="fill-opacity:1;"/><path d="M21.3692 3.22461C21.7619 2.90426 22.3409 2.92685 22.707 3.29297C23.0732 3.65909 23.0958 4.23809 22.7754 4.63086L22.707 4.70703L12.707 14.707C12.3409 15.0731 11.7619 15.0957 11.3692 14.7754L11.293 14.707L8.29298 11.707L8.22462 11.6309C7.90427 11.2381 7.92686 10.6591 8.29298 10.293C8.65909 9.92685 9.2381 9.90426 9.63087 10.2246L9.70704 10.293L12 12.5859L21.293 3.29297L21.3692 3.22461Z" fill="#22C55EFF" style="fill-opacity:1;"/></svg>

<svg xmlns="http://www.w3.org/2000/svg" width="24" height="24" fill="none" class="w-6 h-6" viewBox="0 0 24 24"><path fill="#22c55eff" d="M10.29 1.13a11 11 0 0 1 6.797 1.113l.412.226.086.055a1 1 0 0 1-.994 1.724l-.09-.047-.338-.185a9 9 0 1 0 4.727 6.563l-.07-.38-.014-.1a1 1 0 0 1 1.95-.397l.025.098.084.463A11 11 0 1 1 10.29 1.13"/><path fill="#22c55eff" d="M21.37 3.225a1 1 0 0 1 1.405 1.406l-.068.076-10 10a1 1 0 0 1-1.338.068l-.076-.068-3-3-.068-.076a1 1 0 0 1 1.406-1.406l.076.068L12 12.586l9.293-9.293z"/></svg>
